svgs/identity-light.svg

<svg width="400" height="400" viewBox="0 0 400 400" fill="none" xmlns="http://www.w3.org/2000/svg">
<g id="identity">
<g id="identity_2">
<path id="Path" d="M25.5808 130.824H104.165C108.652 130.824 112.841 133.322 115.135 137.32L171.878 238.755C176.865 247.649 189.43 247.349 194.018 238.255L288.857 51.2748C291.051 46.9776 295.339 44.2793 300.026 44.2793H373.424C382.898 44.2793 388.981 54.6726 384.494 63.2671L229.321 362.076C212.267 394.055 168.089 395.554 148.942 364.874L15.0099 150.711C9.6247 142.117 15.708 130.824 25.5808 130.824Z" fill="#F0F3F5"/>
<path id="Shape (Stroke)" fill-rule="evenodd" clip-rule="evenodd" d="M53.5038 219.266C45.5303 219.266 39.0436 225.766 39.0436 233.756V246.648C39.0436 254.639 45.5303 261.139 53.5038 261.139H207.081C215.055 261.139 221.542 254.639 221.542 246.648V233.756C221.542 225.766 215.055 219.266 207.081 219.266H53.5038ZM35.0546 233.756C35.0546 223.558 43.3272 215.268 53.5038 215.268H207.081C217.258 215.268 225.531 223.558 225.531 233.756V246.648C225.531 256.846 217.258 265.136 207.081 265.136H53.5038C43.3272 265.136 35.0546 256.846 35.0546 246.648V233.756ZM56.795 229.727C57.7491 229.175 58.9689 229.503 59.5195 230.459L62.8282 236.204L66.1369 230.459C66.6875 229.503 67.9073 229.175 68.8613 229.727C69.8154 230.279 70.1424 231.501 69.5918 232.457L66.2534 238.254H72.8506C73.9522 238.254 74.8451 239.148 74.8451 240.252C74.8451 241.356 73.9522 242.251 72.8506 242.251H66.3109L69.5918 247.948C70.1424 248.904 69.8154 250.126 68.8613 250.678C67.9073 251.23 66.6875 250.902 66.1369 249.946L62.8282 244.201L59.5195 249.946C58.9689 250.902 57.7491 251.23 56.795 250.678C55.841 250.126 55.514 248.904 56.0646 247.948L59.3454 242.251H52.706C51.6045 242.251 50.7115 241.356 50.7115 240.252C50.7115 239.148 51.6045 238.254 52.706 238.254H59.403L56.0646 232.457C55.514 231.501 55.841 230.279 56.795 229.727ZM89.0065 229.727C89.9605 229.175 91.1803 229.503 91.7309 230.459L95.0396 236.204L98.3483 230.459C98.8989 229.503 100.119 229.175 101.073 229.727C102.027 230.279 102.354 231.501 101.803 232.457L98.4648 238.254H105.062C106.164 238.254 107.057 239.148 107.057 240.252C107.057 241.356 106.164 242.251 105.062 242.251H98.5224L101.803 247.948C102.354 248.904 102.027 250.126 101.073 250.678C100.119 251.23 98.8989 250.902 98.3483 249.946L95.0396 244.201L91.7309 249.946C91.1803 250.902 89.9605 251.23 89.0065 250.678C88.0524 250.126 87.7254 248.904 88.276 247.948L91.5568 242.251H85.0172C83.9156 242.251 83.0226 241.356 83.0226 240.252C83.0226 239.148 83.9156 238.254 85.0172 238.254H91.6144L88.276 232.457C87.7254 231.501 88.0524 230.279 89.0065 229.727Z" fill="#999999"/>
<path id="Shape (Stroke)_2" fill-rule="evenodd" clip-rule="evenodd" d="M121.218 229.73C122.172 229.178 123.392 229.506 123.943 230.462L127.251 236.207L130.56 230.462C131.111 229.506 132.331 229.178 133.285 229.73C134.239 230.282 134.566 231.504 134.015 232.46L130.677 238.257H137.374C138.475 238.257 139.368 239.151 139.368 240.255C139.368 241.359 138.475 242.254 137.374 242.254H130.734L134.015 247.951C134.566 248.907 134.239 250.129 133.285 250.681C132.331 251.233 131.111 250.905 130.56 249.949L127.251 244.204L123.943 249.949C123.392 250.905 122.172 251.233 121.218 250.681C120.264 250.129 119.937 248.907 120.488 247.951L123.769 242.254H117.229C116.127 242.254 115.234 241.359 115.234 240.255C115.234 239.151 116.127 238.257 117.229 238.257H123.826L120.488 232.46C119.937 231.504 120.264 230.282 121.218 229.73Z" fill="#999999"/>
<path id="Shape (Stroke)_3" fill-rule="evenodd" clip-rule="evenodd" d="M153.529 229.73C154.483 229.178 155.703 229.506 156.254 230.462L159.562 236.207L162.871 230.462C163.422 229.506 164.641 229.178 165.595 229.73C166.55 230.282 166.877 231.504 166.326 232.46L162.988 238.257H169.585C170.686 238.257 171.579 239.151 171.579 240.255C171.579 241.359 170.686 242.254 169.585 242.254H163.045L166.326 247.951C166.877 248.907 166.55 250.129 165.595 250.681C164.641 251.233 163.422 250.905 162.871 249.949L159.562 244.204L156.254 249.949C155.703 250.905 154.483 251.233 153.529 250.681C152.575 250.129 152.248 248.907 152.799 247.951L156.08 242.254H149.44C148.339 242.254 147.446 241.359 147.446 240.255C147.446 239.151 148.339 238.257 149.44 238.257H156.137L152.799 232.46C152.248 231.504 152.575 230.282 153.529 229.73Z" fill="#999999"/>
<path id="Shape (Stroke)_4" fill-rule="evenodd" clip-rule="evenodd" d="M187.037 229.73C187.991 229.178 189.211 229.506 189.762 230.462L193.07 236.207L196.379 230.462C196.93 229.506 198.15 229.178 199.104 229.73C200.058 230.282 200.385 231.504 199.834 232.46L196.496 238.257H203.193C204.294 238.257 205.187 239.151 205.187 240.255C205.187 241.359 204.294 242.254 203.193 242.254H196.553L199.834 247.951C200.385 248.907 200.058 250.129 199.104 250.681C198.15 251.233 196.93 250.905 196.379 249.949L193.07 244.204L189.762 249.949C189.211 250.905 187.991 251.233 187.037 250.681C186.083 250.129 185.756 248.907 186.307 247.951L189.588 242.254H183.048C181.946 242.254 181.053 241.359 181.053 240.255C181.053 239.151 181.946 238.257 183.048 238.257H189.645L186.307 232.46C185.756 231.504 186.083 230.282 187.037 229.73Z" fill="#999999"/>
<g id="Group">
<path id="Path (Stroke)" fill-rule="evenodd" clip-rule="evenodd" d="M51.2103 83.3527C44.4335 83.3527 38.944 88.8537 38.944 95.6448V187.986C38.944 194.777 44.4335 200.278 51.2103 200.278H209.276C216.052 200.278 221.542 194.777 221.542 187.986V95.6448C221.542 88.8537 216.052 83.3527 209.276 83.3527H146.149C145.048 83.3527 144.155 82.4578 144.155 81.3539C144.155 80.2501 145.048 79.3552 146.149 79.3552H209.276C218.255 79.3552 225.531 86.646 225.531 95.6448V187.986C225.531 196.984 218.255 204.275 209.276 204.275H51.2103C42.2304 204.275 34.955 196.984 34.955 187.986V95.6448C34.955 86.646 42.2304 79.3552 51.2103 79.3552H114.237C115.338 79.3552 116.231 80.2501 116.231 81.3539C116.231 82.4578 115.338 83.3527 114.237 83.3527H51.2103Z" fill="#999999"/>
<path id="Path (Stroke)_2" fill-rule="evenodd" clip-rule="evenodd" d="M130.292 51.4747C122.526 51.4747 116.331 57.7671 116.331 65.4658V92.7483H144.254V65.4658C144.254 57.6835 137.975 51.4747 130.292 51.4747ZM112.342 65.4658C112.342 55.5757 120.307 47.4773 130.292 47.4773C140.162 47.4773 148.243 55.4595 148.243 65.4658V94.747C148.243 95.8509 147.35 96.7457 146.249 96.7457H114.336C113.235 96.7457 112.342 95.8509 112.342 94.747V65.4658Z" fill="#999999"/>
<path id="Oval (Stroke)" fill-rule="evenodd" clip-rule="evenodd" d="M122.116 65.2675C122.116 60.7417 125.777 57.0728 130.293 57.0728C134.81 57.0728 138.471 60.7417 138.471 65.2675C138.471 69.7933 134.81 73.4623 130.293 73.4623C125.777 73.4623 122.116 69.7933 122.116 65.2675ZM130.293 61.0702C127.98 61.0702 126.105 62.9494 126.105 65.2675C126.105 67.5856 127.98 69.4648 130.293 69.4648C132.606 69.4648 134.482 67.5856 134.482 65.2675C134.482 62.9494 132.606 61.0702 130.293 61.0702Z" fill="#999999"/>
<path id="Oval (Stroke)_2" fill-rule="evenodd" clip-rule="evenodd" d="M53.005 144.815C53.005 122.903 70.7306 105.14 92.5961 105.14C114.462 105.14 132.187 122.903 132.187 144.815C132.187 166.727 114.462 184.49 92.5961 184.49C70.7306 184.49 53.005 166.727 53.005 144.815ZM92.5961 109.138C72.9336 109.138 56.994 125.111 56.994 144.815C56.994 164.519 72.9336 180.492 92.5961 180.492C112.259 180.492 128.198 164.519 128.198 144.815C128.198 125.111 112.259 109.138 92.5961 109.138Z" fill="#999999"/>
<path id="Oval (Stroke)_3" fill-rule="evenodd" clip-rule="evenodd" d="M76.8398 138.219C76.8398 129.499 83.8943 122.429 92.5965 122.429C101.299 122.429 108.353 129.499 108.353 138.219C108.353 146.94 101.299 154.009 92.5965 154.009C83.8943 154.009 76.8398 146.94 76.8398 138.219ZM92.5965 126.427C86.0974 126.427 80.8289 131.706 80.8289 138.219C80.8289 144.732 86.0974 150.012 92.5965 150.012C99.0956 150.012 104.364 144.732 104.364 138.219C104.364 131.706 99.0956 126.427 92.5965 126.427Z" fill="#999999"/>
<path id="Shape (Stroke)_5" fill-rule="evenodd" clip-rule="evenodd" d="M144.155 126.227C144.155 125.123 145.048 124.228 146.149 124.228H200.699C201.801 124.228 202.694 125.123 202.694 126.227C202.694 127.331 201.801 128.226 200.699 128.226H146.149C145.048 128.226 144.155 127.331 144.155 126.227ZM144.155 143.016C144.155 141.912 145.048 141.018 146.149 141.018H200.699C201.801 141.018 202.694 141.912 202.694 143.016C202.694 144.12 201.801 145.015 200.699 145.015H146.149C145.048 145.015 144.155 144.12 144.155 143.016ZM65.549 171.426C71.5965 163.027 81.4646 157.605 92.5965 157.605C103.728 157.605 113.597 163.027 119.644 171.426C120.237 172.25 120.119 173.39 119.369 174.074C112.339 180.488 102.891 184.488 92.5965 184.488C82.3021 184.488 72.854 180.488 65.8237 174.074C65.0738 173.39 64.9556 172.25 65.549 171.426ZM69.8953 172.319C76.0575 177.39 84.0038 180.491 92.5965 180.491C101.189 180.491 109.136 177.39 115.298 172.319C109.922 165.758 101.751 161.603 92.5965 161.603C83.4418 161.603 75.2707 165.758 69.8953 172.319ZM144.155 159.807C144.155 158.703 145.048 157.808 146.149 157.808H200.699C201.801 157.808 202.694 158.703 202.694 159.807C202.694 160.911 201.801 161.806 200.699 161.806H146.149C145.048 161.806 144.155 160.911 144.155 159.807Z" fill="#999999"/>
</g>
<path id="Shape (Stroke)_6" fill-rule="evenodd" clip-rule="evenodd" d="M328.348 261.14C329.45 261.14 330.343 262.035 330.343 263.139V269.435C330.343 270.539 329.45 271.434 328.348 271.434C327.247 271.434 326.354 270.539 326.354 269.435V263.139C326.354 262.035 327.247 261.14 328.348 261.14ZM313.29 276.232C313.29 275.128 314.183 274.234 315.284 274.234H321.567C322.668 274.234 323.561 275.128 323.561 276.232C323.561 277.336 322.668 278.231 321.567 278.231H315.284C314.183 278.231 313.29 277.336 313.29 276.232ZM333.135 276.232C333.135 275.128 334.028 274.234 335.129 274.234H341.312C342.414 274.234 343.307 275.128 343.307 276.232C343.307 277.336 342.414 278.231 341.312 278.231H335.129C334.028 278.231 333.135 277.336 333.135 276.232ZM328.348 280.526C329.45 280.526 330.343 281.421 330.343 282.525V289.321C330.343 290.425 329.45 291.319 328.348 291.319C327.247 291.319 326.354 290.425 326.354 289.321V282.525C326.354 281.421 327.247 280.526 328.348 280.526Z" fill="#999999"/>
<g id="Group_2">
<path id="Shape" fill-rule="evenodd" clip-rule="evenodd" d="M228.223 89.4504L302.02 132.123C310.696 137.12 313.688 148.213 308.602 155.908L267.415 227.362C262.329 236.956 251.36 239.954 242.683 234.957L233.708 229.761L228.921 237.955C228.323 238.855 227.226 239.155 226.428 238.655L221.242 235.657L213.863 248.449C213.564 249.048 212.965 249.448 212.367 249.648L194.715 254.944C193.419 255.344 192.621 256.843 192.92 258.142L196.81 273.732C197.109 275.032 196.311 276.431 195.015 276.83L179.358 281.627C178.061 282.127 177.263 283.526 177.563 284.825L181.552 300.315C181.95 301.615 181.053 303.014 179.756 303.413L164 308.31C162.703 308.81 161.906 310.209 162.205 311.508L166.393 327.598C166.792 328.897 165.895 330.296 164.598 330.696C164.598 330.696 153.329 334.194 144.553 337.092C135.777 339.99 131.389 335.593 129.794 330.396C128.198 325.1 123.711 308.41 123.711 308.41C123.611 307.811 123.711 307.111 124.01 306.511L178.959 211.172L173.474 207.975C172.576 207.475 172.277 206.276 172.776 205.376L177.563 197.181L168.986 192.285C160.41 187.188 157.418 176.195 162.404 167.5L203.491 96.0462C208.577 87.4517 219.547 84.4536 228.223 89.4504ZM236.8 131.125C232.811 138.021 235.204 146.815 242.085 150.813C248.966 154.81 257.742 152.412 261.731 145.516C265.72 138.62 263.327 129.826 256.446 125.829C249.564 121.831 240.789 124.23 236.8 131.125Z" fill="#FFD493"/>
<path id="Shape_2" fill-rule="evenodd" clip-rule="evenodd" d="M214.66 101.643L296.037 108.139C305.112 108.638 312.491 116.733 312.392 126.427V201.878C312.392 211.372 305.012 218.968 295.837 218.968H286.164V228.062C286.164 229.061 285.466 229.861 284.568 229.861H278.984V245.151C278.984 245.85 278.684 246.45 278.285 246.95L266.418 260.041C265.521 261.041 265.521 262.54 266.418 263.539L276.889 274.532C277.787 275.431 277.787 277.03 276.889 278.03L266.418 289.922C265.521 290.921 265.521 292.52 266.418 293.42L276.889 304.113C277.787 305.012 277.787 306.611 276.889 307.611L266.418 319.803C265.521 320.802 265.521 322.401 266.418 323.301L277.388 334.294C278.285 335.193 278.285 336.792 277.388 337.791C277.388 337.791 269.909 346.686 264.025 353.581C258.141 360.477 252.457 359.378 248.667 355.88C244.877 352.382 233.01 340.989 233.01 340.989C232.611 340.49 232.312 339.89 232.312 339.191V230.76H226.129C225.132 230.76 224.334 229.861 224.334 228.861V219.467H214.66C204.688 219.467 196.61 211.272 196.61 201.279V118.732C196.61 108.738 204.788 101.043 214.66 101.643ZM242.185 134.322C242.185 142.117 248.467 148.613 256.047 148.912C263.626 149.212 269.709 143.116 269.709 135.421C269.709 127.726 263.626 121.23 256.047 120.83C248.368 120.531 242.185 126.527 242.185 134.322Z" fill="#FFBE5C"/>
<path id="Path_2" d="M245.874 12C210.372 12 181.551 40.8815 181.551 76.4587C181.551 90.9494 186.238 104.741 195.014 115.933L199.302 108.638C192.82 99.2441 189.33 88.1512 189.33 76.4587C189.33 45.1788 214.66 19.795 245.874 19.795C277.088 19.795 302.419 45.1788 302.419 76.4587C302.419 107.739 276.989 133.022 245.874 133.022C244.678 133.022 243.281 132.923 242.284 132.923C242.184 133.822 241.985 134.921 242.184 137.12C242.384 139.119 243.082 140.718 243.082 140.718C244.478 140.818 244.378 140.818 245.775 140.818C281.277 140.818 310.098 111.936 310.098 76.3588C310.098 40.7816 281.277 12 245.874 12Z" fill="#FFD493"/>
<path id="Path_3" d="M264.124 353.48C270.008 346.584 277.487 337.69 277.487 337.69C278.385 336.691 278.385 335.092 277.487 334.192L266.518 323.199C265.62 322.3 265.62 320.701 266.518 319.701L276.989 307.509C277.886 306.51 277.886 304.911 276.989 304.011L266.518 293.318C265.62 292.419 265.62 290.82 266.518 289.821L276.989 277.928C277.886 276.929 277.886 275.33 276.989 274.43L266.518 263.437C265.62 262.438 265.62 260.939 266.518 259.94L278.385 246.848C278.784 246.348 279.083 245.749 279.083 245.049V232.957C279.083 231.158 277.687 229.759 275.892 229.759L265.52 230.758C260.235 230.758 256.046 235.056 256.046 240.252V353.78C256.046 356.378 259.038 357.977 261.132 356.378C262.13 355.678 263.127 354.679 264.124 353.48Z" fill="#FFD493"/>
</g>
</g>
</g>
</svg>

<svg xmlns="http://www.w3.org/2000/svg" width="400" height="400" fill="none" viewBox="0 0 400 400"><path fill="#F0F3F5" d="M25.58 130.824h78.585c4.487 0 8.676 2.498 10.97 6.496l56.743 101.435c4.987 8.894 17.552 8.594 22.14-.5l94.839-186.98c2.194-4.297 6.482-6.996 11.169-6.996h73.398c9.474 0 15.557 10.394 11.07 18.988L229.321 362.076c-17.054 31.979-61.232 33.478-80.379 2.798L15.01 150.711c-5.385-8.594.698-19.887 10.57-19.887"/><path fill="#999" fill-rule="evenodd" d="M53.504 219.266c-7.974 0-14.46 6.5-14.46 14.49v12.892c0 7.991 6.486 14.491 14.46 14.491H207.08c7.974 0 14.461-6.5 14.461-14.491v-12.892c0-7.99-6.487-14.49-14.461-14.49zm-18.45 14.49c0-10.198 8.273-18.488 18.45-18.488H207.08c10.177 0 18.45 8.29 18.45 18.488v12.892c0 10.198-8.273 18.488-18.45 18.488H53.504c-10.177 0-18.45-8.29-18.45-18.488zm21.741-4.029a1.99 1.99 0 0 1 2.724.732l3.31 5.745 3.308-5.745a1.99 1.99 0 0 1 2.724-.732 2 2 0 0 1 .73 2.73l-3.338 5.797h6.598c1.101 0 1.994.894 1.994 1.998a1.997 1.997 0 0 1-1.994 1.999h-6.54l3.28 5.697a2 2 0 0 1-.73 2.73 1.99 1.99 0 0 1-2.724-.732l-3.309-5.745-3.309 5.745a1.99 1.99 0 0 1-2.724.732 2 2 0 0 1-.73-2.73l3.28-5.697h-6.639a1.997 1.997 0 0 1-1.995-1.999c0-1.104.894-1.998 1.995-1.998h6.697l-3.338-5.797a2 2 0 0 1 .73-2.73m32.212 0a1.99 1.99 0 0 1 2.724.732l3.309 5.745 3.308-5.745a1.99 1.99 0 0 1 2.725-.732 2 2 0 0 1 .73 2.73l-3.338 5.797h6.597c1.102 0 1.995.894 1.995 1.998a1.997 1.997 0 0 1-1.995 1.999h-6.54l3.281 5.697a2 2 0 0 1-.73 2.73 1.99 1.99 0 0 1-2.725-.732l-3.308-5.745-3.31 5.745a1.99 1.99 0 0 1-2.724.732 2 2 0 0 1-.73-2.73l3.28-5.697h-6.539a1.997 1.997 0 0 1-1.994-1.999c0-1.104.893-1.998 1.994-1.998h6.597l-3.338-5.797a2 2 0 0 1 .73-2.73" clip-rule="evenodd"/><path fill="#999" fill-rule="evenodd" d="M121.218 229.73a1.993 1.993 0 0 1 2.725.732l3.308 5.745 3.309-5.745a1.993 1.993 0 0 1 2.725-.732 2 2 0 0 1 .73 2.73l-3.338 5.797h6.697c1.101 0 1.994.894 1.994 1.998a1.997 1.997 0 0 1-1.994 1.999h-6.64l3.281 5.697a2 2 0 0 1-.73 2.73 1.993 1.993 0 0 1-2.725-.732l-3.309-5.745-3.308 5.745a1.993 1.993 0 0 1-2.725.732 2 2 0 0 1-.73-2.73l3.281-5.697h-6.54a1.997 1.997 0 0 1-1.995-1.999c0-1.104.893-1.998 1.995-1.998h6.597l-3.338-5.797a2 2 0 0 1 .73-2.73m32.311 0a1.993 1.993 0 0 1 2.725.732l3.308 5.745 3.309-5.745a1.99 1.99 0 0 1 2.724-.732 2 2 0 0 1 .731 2.73l-3.338 5.797h6.597c1.101 0 1.994.894 1.994 1.998a1.997 1.997 0 0 1-1.994 1.999h-6.54l3.281 5.697a2 2 0 0 1-.731 2.73 1.99 1.99 0 0 1-2.724-.732l-3.309-5.745-3.308 5.745a1.993 1.993 0 0 1-2.725.732 2 2 0 0 1-.73-2.73l3.281-5.697h-6.64a1.997 1.997 0 0 1-1.994-1.999c0-1.104.893-1.998 1.994-1.998h6.697l-3.338-5.797a2 2 0 0 1 .73-2.73m33.508 0a1.993 1.993 0 0 1 2.725.732l3.308 5.745 3.309-5.745a1.993 1.993 0 0 1 2.725-.732 2 2 0 0 1 .73 2.73l-3.338 5.797h6.697c1.101 0 1.994.894 1.994 1.998a1.997 1.997 0 0 1-1.994 1.999h-6.64l3.281 5.697a2 2 0 0 1-.73 2.73 1.993 1.993 0 0 1-2.725-.732l-3.309-5.745-3.308 5.745a1.993 1.993 0 0 1-2.725.732 2 2 0 0 1-.73-2.73l3.281-5.697h-6.54a1.997 1.997 0 0 1-1.995-1.999c0-1.104.893-1.998 1.995-1.998h6.597l-3.338-5.797a2 2 0 0 1 .73-2.73" clip-rule="evenodd"/><g fill="#999" fill-rule="evenodd" clip-rule="evenodd"><path d="M51.21 83.353c-6.776 0-12.266 5.5-12.266 12.292v92.341c0 6.791 5.49 12.292 12.266 12.292h158.066c6.776 0 12.266-5.501 12.266-12.292V95.645c0-6.791-5.49-12.292-12.266-12.292h-63.127a1.997 1.997 0 0 1-1.994-2c0-1.103.893-1.998 1.994-1.998h63.127c8.979 0 16.255 7.291 16.255 16.29v92.341c0 8.998-7.276 16.289-16.255 16.289H51.21c-8.98 0-16.255-7.291-16.255-16.289V95.645c0-8.999 7.275-16.29 16.255-16.29h63.027c1.101 0 1.994.895 1.994 1.999a1.997 1.997 0 0 1-1.994 1.999z"/><path d="M130.292 51.475c-7.766 0-13.961 6.292-13.961 13.99v27.283h27.923V65.466c0-7.782-6.279-13.991-13.962-13.991m-17.95 13.99c0-9.89 7.965-17.988 17.95-17.988 9.87 0 17.951 7.983 17.951 17.989v29.281a1.996 1.996 0 0 1-1.994 1.999h-31.913a1.996 1.996 0 0 1-1.994-1.999z"/><path d="M122.116 65.268c0-4.526 3.661-8.195 8.177-8.195 4.517 0 8.178 3.669 8.178 8.194s-3.661 8.195-8.178 8.195c-4.516 0-8.177-3.669-8.177-8.195m8.177-4.198a4.193 4.193 0 0 0-4.188 4.197 4.193 4.193 0 0 0 4.188 4.198 4.193 4.193 0 0 0 4.189-4.198 4.193 4.193 0 0 0-4.189-4.197m-77.288 83.746c0-21.912 17.726-39.675 39.591-39.675s39.591 17.763 39.591 39.675-17.725 39.675-39.59 39.675-39.592-17.763-39.592-39.675m39.591-35.677c-19.662 0-35.602 15.973-35.602 35.677s15.94 35.677 35.602 35.677c19.663 0 35.602-15.973 35.602-35.677s-15.939-35.677-35.602-35.677"/><path d="M76.84 138.219c0-8.72 7.054-15.79 15.757-15.79s15.756 7.07 15.756 15.79c0 8.721-7.054 15.79-15.756 15.79s-15.757-7.069-15.757-15.79m15.757-11.792c-6.5 0-11.768 5.279-11.768 11.792s5.268 11.793 11.768 11.793c6.499 0 11.767-5.28 11.767-11.793s-5.268-11.792-11.767-11.792m51.558-.2c0-1.104.893-1.999 1.994-1.999h54.55c1.102 0 1.995.895 1.995 1.999a1.997 1.997 0 0 1-1.995 1.999h-54.55a1.997 1.997 0 0 1-1.994-1.999m0 16.789c0-1.104.893-1.998 1.994-1.998h54.55c1.102 0 1.995.894 1.995 1.998a1.997 1.997 0 0 1-1.995 1.999h-54.55a1.997 1.997 0 0 1-1.994-1.999m-78.606 28.41a33.23 33.23 0 0 1 27.048-13.821c11.131 0 21 5.422 27.047 13.821a2.003 2.003 0 0 1-.275 2.648c-7.03 6.414-16.478 10.414-26.772 10.414-10.295 0-19.743-4-26.773-10.414a2 2 0 0 1-.275-2.648m4.346.893c6.163 5.071 14.109 8.172 22.702 8.172 8.592 0 16.539-3.101 22.701-8.172a29.24 29.24 0 0 0-22.701-10.716c-9.155 0-17.326 4.155-22.702 10.716m74.26-12.512c0-1.104.893-1.999 1.994-1.999h54.55c1.102 0 1.995.895 1.995 1.999a1.997 1.997 0 0 1-1.995 1.999h-54.55a1.997 1.997 0 0 1-1.994-1.999"/></g><path fill="#999" fill-rule="evenodd" d="M328.348 261.14c1.102 0 1.995.895 1.995 1.999v6.296a1.997 1.997 0 0 1-1.995 1.999 1.997 1.997 0 0 1-1.994-1.999v-6.296c0-1.104.893-1.999 1.994-1.999m-15.058 15.092c0-1.104.893-1.998 1.994-1.998h6.283c1.101 0 1.994.894 1.994 1.998a1.997 1.997 0 0 1-1.994 1.999h-6.283a1.997 1.997 0 0 1-1.994-1.999m19.845 0c0-1.104.893-1.998 1.994-1.998h6.183c1.102 0 1.995.894 1.995 1.998a1.997 1.997 0 0 1-1.995 1.999h-6.183a1.997 1.997 0 0 1-1.994-1.999m-4.787 4.294c1.102 0 1.995.895 1.995 1.999v6.796a1.996 1.996 0 0 1-1.995 1.998 1.996 1.996 0 0 1-1.994-1.998v-6.796c0-1.104.893-1.999 1.994-1.999" clip-rule="evenodd"/><path fill="#FFD493" fill-rule="evenodd" d="m228.223 89.45 73.797 42.673c8.676 4.997 11.668 16.09 6.582 23.785l-41.187 71.454c-5.086 9.594-16.055 12.592-24.732 7.595l-8.975-5.196-4.787 8.194c-.598.9-1.695 1.2-2.493.7l-5.186-2.998-7.379 12.792c-.299.599-.898.999-1.496 1.199l-17.652 5.296c-1.296.4-2.094 1.899-1.795 3.198l3.89 15.59c.299 1.3-.499 2.699-1.795 3.098l-15.657 4.797c-1.297.5-2.095 1.899-1.795 3.198l3.989 15.49c.398 1.3-.499 2.699-1.796 3.098L164 308.31c-1.297.5-2.094 1.899-1.795 3.198l4.188 16.09c.399 1.299-.498 2.698-1.795 3.098 0 0-11.269 3.498-20.045 6.396s-13.164-1.499-14.759-6.696c-1.596-5.296-6.083-21.986-6.083-21.986-.1-.599 0-1.299.299-1.899l54.949-95.339-5.485-3.197c-.898-.5-1.197-1.699-.698-2.599l4.787-8.195-8.577-4.896c-8.576-5.097-11.568-16.09-6.582-24.785l41.087-71.454c5.086-8.594 16.056-11.592 24.732-6.596m8.577 41.675c-3.989 6.896-1.596 15.69 5.285 19.688s15.657 1.599 19.646-5.297 1.596-15.69-5.285-19.687-15.657-1.599-19.646 5.296" clip-rule="evenodd"/><path fill="#FFBE5C" fill-rule="evenodd" d="m214.66 101.643 81.377 6.496c9.075.499 16.454 8.594 16.355 18.288v75.451c0 9.494-7.38 17.09-16.555 17.09h-9.673v9.094c0 .999-.698 1.799-1.596 1.799h-5.584v15.29c0 .699-.3 1.299-.699 1.799l-11.867 13.091a2.61 2.61 0 0 0 0 3.498l10.471 10.993c.898.899.898 2.498 0 3.498l-10.471 11.892c-.897.999-.897 2.598 0 3.498l10.471 10.693c.898.899.898 2.498 0 3.498l-10.471 12.192c-.897.999-.897 2.598 0 3.498l10.97 10.993c.897.899.897 2.498 0 3.497 0 0-7.479 8.895-13.363 15.79-5.884 6.896-11.568 5.797-15.358 2.299s-15.657-14.891-15.657-14.891c-.399-.499-.698-1.099-.698-1.798V230.76h-6.183c-.997 0-1.795-.899-1.795-1.899v-9.394h-9.674c-9.972 0-18.05-8.195-18.05-18.188v-82.547c0-9.994 8.178-17.689 18.05-17.089m27.525 32.679c0 7.795 6.282 14.291 13.862 14.59 7.579.3 13.662-5.796 13.662-13.491s-6.083-14.191-13.662-14.591c-7.679-.299-13.862 5.697-13.862 13.492" clip-rule="evenodd"/><path fill="#FFD493" d="M245.874 12c-35.502 0-64.323 28.882-64.323 64.459 0 14.49 4.687 28.282 13.463 39.474l4.288-7.295c-6.482-9.394-9.972-20.487-9.972-32.18 0-31.28 25.33-56.663 56.544-56.663s56.545 25.384 56.545 56.664-25.43 56.563-56.545 56.563c-1.196 0-2.593-.099-3.59-.099-.1.899-.299 1.998-.1 4.197.2 1.999.898 3.598.898 3.598 1.396.1 1.296.1 2.693.1 35.502 0 64.323-28.882 64.323-64.46 0-35.576-28.821-64.358-64.224-64.358m18.25 341.48c5.884-6.896 13.363-15.79 13.363-15.79.898-.999.898-2.598 0-3.498l-10.969-10.993c-.898-.899-.898-2.498 0-3.498l10.471-12.192c.897-.999.897-2.598 0-3.498l-10.471-10.693c-.898-.899-.898-2.498 0-3.497l10.471-11.893c.897-.999.897-2.598 0-3.498l-10.471-10.993a2.606 2.606 0 0 1 0-3.497l11.867-13.092c.399-.5.698-1.099.698-1.799v-12.092c0-1.799-1.396-3.198-3.191-3.198l-10.372.999c-5.285 0-9.474 4.298-9.474 9.494V353.78c0 2.598 2.992 4.197 5.086 2.598.998-.7 1.995-1.699 2.992-2.898"/></svg>
